austria/municipalities/50413.svg

<?xml version="1.0" encoding="UTF-8"?>
<!DOCTYPE svg PUBLIC "-//W3C//DTD SVG 1.1//EN" "http://www.w3.org/Graphics/SVG/1.1/DTD/svg11.dtd">
<svg xmlns="http://www.w3.org/2000/svg" version="1.1" width="159px" height="192px" style="shape-rendering:geometricPrecision; text-rendering:geometricPrecision; image-rendering:optimizeQuality; fill-rule:evenodd; clip-rule:evenodd" xmlns:xlink="http://www.w3.org/1999/xlink">
<g><path style="opacity:1" fill="#070707" d="M -0.5,-0.5 C 52.5,-0.5 105.5,-0.5 158.5,-0.5C 158.5,39.1667 158.5,78.8333 158.5,118.5C 151.555,161.446 126.555,185.779 83.5,191.5C 80.5,191.5 77.5,191.5 74.5,191.5C 32.5569,185.701 7.5569,162.034 -0.5,120.5C -0.5,80.1667 -0.5,39.8333 -0.5,-0.5 Z"/></g>
<g><path style="opacity:1" fill="#fafafa" d="M 2.5,2.5 C 53.5,2.5 104.5,2.5 155.5,2.5C 155.667,41.1681 155.5,79.8348 155,118.5C 152.055,141.893 141.221,160.726 122.5,175C 81.5988,197.709 46.0988,191.209 16,155.5C 7.90987,143.076 3.57654,129.409 3,114.5C 2.50001,77.1682 2.33335,39.8348 2.5,2.5 Z"/></g>
<g><path style="opacity:1" fill="#0d0a09" d="M 109.5,11.5 C 114.683,14.169 119.183,17.8357 123,22.5C 125.667,18.5 128.333,18.5 131,22.5C 131.155,24.856 131.155,27.1893 131,29.5C 135.667,32.8333 139.667,36.8333 143,41.5C 145.685,48.2758 147.518,55.2758 148.5,62.5C 138.479,61.8309 128.813,59.6642 119.5,56C 117,53.5 114.5,51 112,48.5C 111.333,49.1667 110.667,49.8333 110,50.5C 113.852,57.1953 117.518,64.1953 121,71.5C 124.264,86.804 121.098,100.471 111.5,112.5C 112.174,114.517 113.341,116.183 115,117.5C 116.489,121.833 114.989,124.167 110.5,124.5C 107.933,123.283 105.6,121.616 103.5,119.5C 97.6251,123.102 91.2918,125.602 84.5,127C 83.0893,135.077 82.0893,143.244 81.5,151.5C 89.2658,151.869 96.9325,151.202 104.5,149.5C 105.442,149.608 106.275,149.941 107,150.5C 107.883,155.333 107.383,160 105.5,164.5C 97.6229,162.197 89.6229,160.53 81.5,159.5C 82.3068,165.464 82.6401,171.464 82.5,177.5C 78.1161,177.826 73.7828,177.492 69.5,176.5C 70.9262,170.513 72.2595,164.513 73.5,158.5C 64.9143,157.826 56.5809,158.826 48.5,161.5C 47.5067,156.88 47.1734,152.214 47.5,147.5C 56.02,149.67 64.6867,151.003 73.5,151.5C 73.7748,143.447 73.2748,135.447 72,127.5C 66.0358,126.423 60.3691,124.423 55,121.5C 53.4544,123.241 51.4544,124.241 49,124.5C 42.6804,123.067 41.8471,119.901 46.5,115C 30.6765,95.6534 29.8432,75.8201 44,55.5C 44.7216,53.3386 44.0549,51.672 42,50.5C 37.9106,55.2623 33.2439,59.2623 28,62.5C 22.1458,59.654 17.1458,55.654 13,50.5C 11.627,48.3046 11.2937,45.9712 12,43.5C 22.5377,31.283 34.5377,20.9497 48,12.5C 53.883,15.0474 58.5497,19.0474 62,24.5C 65.3534,28.304 65.1868,31.804 61.5,35C 57.9084,37.7135 54.4084,40.5468 51,43.5C 50.3828,44.4491 50.5494,45.2825 51.5,46C 56.7237,44.0697 62.057,42.0697 67.5,40C 79.349,38.0386 90.5156,39.8719 101,45.5C 102.548,44.0863 103.215,42.4196 103,40.5C 99.1182,36.9544 95.6182,33.1211 92.5,29C 92.8623,27.7753 93.3623,26.6086 94,25.5C 99.3618,20.9676 104.528,16.301 109.5,11.5 Z"/></g>
<g><path style="opacity:1" fill="#73d2cc" d="M 109.5,14.5 C 114.951,18.0693 120.284,21.9026 125.5,26C 130.015,30.6819 134.681,35.1819 139.5,39.5C 142.737,45.7826 144.404,52.4493 144.5,59.5C 136.155,59.2194 128.155,57.3861 120.5,54C 112.167,45.6667 103.833,37.3333 95.5,29C 99.6976,23.6371 104.364,18.8038 109.5,14.5 Z"/></g>
<g><path style="opacity:1" fill="#74d4ce" d="M 42.5,19.5 C 44.8324,16.6688 47.8324,15.5022 51.5,16C 55.9308,19.6983 59.2641,24.1983 61.5,29.5C 50.5126,40.4093 39.0126,50.7426 27,60.5C 22.1329,55.9677 17.6329,51.1344 13.5,46C 22.4379,36.2225 32.1045,27.3892 42.5,19.5 Z"/></g>
<g><path style="opacity:1" fill="#203634" d="M 42.5,19.5 C 43.8474,18.9717 45.1807,18.805 46.5,19C 47.8333,20 47.8333,21 46.5,22C 47.4491,22.6172 48.2825,22.4506 49,21.5C 49.6172,22.4491 49.4506,23.2825 48.5,24C 49.1667,24.3333 49.8333,24.6667 50.5,25C 48.6266,27.2089 46.46,29.0422 44,30.5C 43.9115,28.8866 44.7448,27.7199 46.5,27C 43.0569,26.7787 42.7236,25.7787 45.5,24C 42.8333,23 42.8333,22 45.5,21C 44.2625,20.7679 43.2625,20.2679 42.5,19.5 Z"/></g>
<g><path style="opacity:1" fill="#141e1d" d="M 50.5,30.5 C 48.2512,31.0798 46.5846,32.4131 45.5,34.5C 44.1526,35.0283 42.8193,35.195 41.5,35C 45.3333,31.8333 49.1667,28.6667 53,25.5C 52.9421,27.4354 52.1088,29.1021 50.5,30.5 Z"/></g>
<g><path style="opacity:1" fill="#5ca9a3" d="M 50.5,30.5 C 49.4154,32.5869 47.7488,33.9202 45.5,34.5C 46.5846,32.4131 48.2512,31.0798 50.5,30.5 Z"/></g>
<g><path style="opacity:1" fill="#0d1413" d="M 50.5,30.5 C 51.2389,30.369 51.9056,30.5357 52.5,31C 48.6573,35.8836 43.9906,39.217 38.5,41C 41.3312,39.3343 43.6645,37.1676 45.5,34.5C 47.7488,33.9202 49.4154,32.5869 50.5,30.5 Z"/></g>
<g><path style="opacity:1" fill="#192c2b" d="M 106.5,37.5 C 106.897,36.475 107.563,36.3083 108.5,37C 111.667,40.1667 114.833,43.3333 118,46.5C 118.667,47.1667 118.667,47.8333 118,48.5C 114.298,44.6295 110.464,40.9629 106.5,37.5 Z"/></g>
<g><path style="opacity:1" fill="#0e1515" d="M 54.5,31.5 C 55.2389,31.369 55.9056,31.5357 56.5,32C 49.5451,39.1338 42.2118,45.8004 34.5,52C 33.2411,52.9819 31.9078,53.3152 30.5,53C 38.3965,45.5972 46.3965,38.4306 54.5,31.5 Z"/></g>
<g><path style="opacity:1" fill="#ed0000" d="M 73.5,40.5 C 82.6915,40.5071 91.3582,42.6738 99.5,47C 98.8811,48.7571 97.7144,49.9238 96,50.5C 70.3021,40.5011 52.3021,48.1678 42,73.5C 38.6919,87.1038 41.8586,98.9371 51.5,109C 50.4404,110.298 49.2737,111.465 48,112.5C 34.9442,99.2444 31.9442,83.9111 39,66.5C 46.4073,52.2423 57.9073,43.5756 73.5,40.5 Z"/></g>
<g><path style="opacity:1" fill="#182927" d="M 126.5,50.5 C 126.631,51.2389 126.464,51.9056 126,52.5C 123.167,49.6667 120.333,46.8333 117.5,44C 118.167,43.3333 118.833,43.3333 119.5,44C 121.703,46.3722 124.037,48.5389 126.5,50.5 Z"/></g>
<g><path style="opacity:1" fill="#213b39" d="M 35.5,43.5 C 36.525,43.8966 36.6917,44.5632 36,45.5C 35.1627,47.0074 33.9961,47.5074 32.5,47C 33.7101,45.9609 34.7101,44.7942 35.5,43.5 Z"/></g>
<g><path style="opacity:1" fill="#1c302e" d="M 126.5,50.5 C 126.141,48.629 125.141,47.129 123.5,46C 128.071,47.5729 130.904,50.7396 132,55.5C 130.296,53.6266 128.463,51.9599 126.5,50.5 Z"/></g>
<g><path style="opacity:1" fill="#f6f6f6" d="M 71.5,48.5 C 78.3422,48.0385 85.0088,48.8718 91.5,51C 92.91,51.3678 93.91,52.2011 94.5,53.5C 89.1822,60.8142 83.5155,67.8142 77.5,74.5C 71.1584,68.1575 65.1584,61.4908 59.5,54.5C 63.1083,51.5314 67.1083,49.5314 71.5,48.5 Z"/></g>
<g><path style="opacity:1" fill="#223c39" d="M 132.5,50.5 C 134.63,52.1271 136.63,53.9604 138.5,56C 135.474,55.4813 133.474,53.648 132.5,50.5 Z"/></g>
<g><path style="opacity:1" fill="#ec0000" d="M 107.5,53.5 C 115.104,60.3783 119.271,69.045 120,79.5C 120.518,105.47 108.018,120.803 82.5,125.5C 82.0283,133.441 81.0283,141.274 79.5,149C 80.3802,150.356 80.7135,151.856 80.5,153.5C 88.7339,154.009 96.7339,153.009 104.5,150.5C 105.489,154.107 105.823,157.774 105.5,161.5C 97.3436,159.105 89.0103,157.939 80.5,158C 79.9186,158.893 79.5852,159.893 79.5,161C 80.277,166.161 80.9436,171.327 81.5,176.5C 78.5,176.5 75.5,176.5 72.5,176.5C 73.5413,170.21 74.208,163.877 74.5,157.5C 65.7822,156.209 57.1155,156.542 48.5,158.5C 48.5,155.5 48.5,152.5 48.5,149.5C 57.3026,152.031 66.3026,153.031 75.5,152.5C 75.0138,143.153 74.3472,133.819 73.5,124.5C 66.8689,125.008 61.2022,123.008 56.5,118.5C 56.9767,117.522 57.6433,116.689 58.5,116C 84.7896,126.606 103.29,118.773 114,92.5C 116.722,79.0126 113.556,67.1793 104.5,57C 105.71,55.9609 106.71,54.7942 107.5,53.5 Z"/></g>
<g><path style="opacity:1" fill="#fafafa" d="M 102.5,59.5 C 109.649,65.81 112.982,73.81 112.5,83.5C 112.739,88.3786 111.906,93.0452 110,97.5C 108.638,100.236 106.804,102.569 104.5,104.5C 97.6778,97.5099 91.0111,90.3433 84.5,83C 90.3325,75.0057 96.3325,67.1723 102.5,59.5 Z"/></g>
<g><path style="opacity:1" fill="#f9f9f9" d="M 50.5,61.5 C 57.9193,68.0879 64.9193,75.2546 71.5,83C 65.7051,91.2921 59.3718,99.1255 52.5,106.5C 40.448,92.0088 39.7814,77.0088 50.5,61.5 Z"/></g>
<g><path style="opacity:1" fill="#f8f8f8" d="M 77.5,91.5 C 84.586,97.7548 91.2527,104.588 97.5,112C 85.3346,120.123 73.0013,120.456 60.5,113C 66.3808,105.958 72.0475,98.7916 77.5,91.5 Z"/></g>
<g><path style="opacity:1" fill="#fbfbfb" d="M 158.5,118.5 C 158.5,142.833 158.5,167.167 158.5,191.5C 133.5,191.5 108.5,191.5 83.5,191.5C 126.555,185.779 151.555,161.446 158.5,118.5 Z"/></g>
<g><path style="opacity:1" fill="#fbfbfb" d="M -0.5,120.5 C 7.5569,162.034 32.5569,185.701 74.5,191.5C 49.5,191.5 24.5,191.5 -0.5,191.5C -0.5,167.833 -0.5,144.167 -0.5,120.5 Z"/></g>
</svg>

<svg xmlns="http://www.w3.org/2000/svg" width="159" height="192" style="shape-rendering:geometricPrecision;text-rendering:geometricPrecision;image-rendering:optimizeQuality;fill-rule:evenodd;clip-rule:evenodd"><path style="opacity:1" fill="#070707" d="M-.5-.5h159v119c-6.945 42.946-31.945 67.279-75 73h-9c-41.943-5.799-66.943-29.466-75-71V-.5z"/><path style="opacity:1" fill="#fafafa" d="M2.5 2.5h153c.167 38.668 0 77.335-.5 116-2.945 23.393-13.779 42.226-32.5 56.5-40.901 22.709-76.401 16.209-106.5-19.5-8.09-12.424-12.423-26.091-13-41-.5-37.332-.667-74.665-.5-112z"/><path style="opacity:1" fill="#0d0a09" d="M109.5 11.5c5.183 2.669 9.683 6.336 13.5 11 2.667-4 5.333-4 8 0 .155 2.356.155 4.69 0 7a51.251 51.251 0 0 1 12 12 89.53 89.53 0 0 1 5.5 21 96.246 96.246 0 0 1-29-6.5l-7.5-7.5-2 2a306.913 306.913 0 0 1 11 21c3.264 15.304.098 28.971-9.5 41a10.502 10.502 0 0 0 3.5 5c1.489 4.333-.011 6.667-4.5 7-2.567-1.217-4.9-2.884-7-5a58.721 58.721 0 0 1-19 7.5 242.769 242.769 0 0 0-3 24.5 85.79 85.79 0 0 0 23-2 4.933 4.933 0 0 1 2.5 1c.883 4.833.383 9.5-1.5 14a154.777 154.777 0 0 0-24-5 114.28 114.28 0 0 1 1 18 43.116 43.116 0 0 1-13-1 606.36 606.36 0 0 0 4-18c-8.586-.674-16.92.326-25 3a49.874 49.874 0 0 1-1-14 136.153 136.153 0 0 0 26 4 124.39 124.39 0 0 0-1.5-24 56.24 56.24 0 0 1-17-6c-1.546 1.741-3.546 2.741-6 3-6.32-1.433-7.153-4.599-2.5-9.5C30.677 95.653 29.843 75.82 44 55.5c.722-2.161.055-3.828-2-5-4.09 4.762-8.756 8.762-14 12-5.854-2.846-10.854-6.846-15-12-1.373-2.195-1.706-4.529-1-7 10.538-12.217 22.538-22.55 36-31 5.883 2.547 10.55 6.547 14 12 3.353 3.804 3.187 7.304-.5 10.5A201.775 201.775 0 0 0 51 43.5c-.617.95-.45 1.782.5 2.5a1818.32 1818.32 0 0 0 16-6c11.849-1.961 23.016-.128 33.5 5.5 1.548-1.414 2.215-3.08 2-5A85.09 85.09 0 0 1 92.5 29a16.228 16.228 0 0 1 1.5-3.5 315.789 315.789 0 0 0 15.5-14z"/><path style="opacity:1" fill="#73d2cc" d="M109.5 14.5a228.761 228.761 0 0 1 16 11.5 266.707 266.707 0 0 0 14 13.5c3.237 6.283 4.904 12.95 5 20-8.345-.28-16.345-2.114-24-5.5l-25-25a96.253 96.253 0 0 1 14-14.5z"/><path style="opacity:1" fill="#74d4ce" d="M42.5 19.5c2.332-2.831 5.332-3.998 9-3.5 4.43 3.698 7.764 8.198 10 13.5a465.315 465.315 0 0 1-34.5 31A138.24 138.24 0 0 1 13.5 46c8.938-9.778 18.605-18.61 29-26.5z"/><path style="opacity:1" fill="#203634" d="M42.5 19.5c1.347-.528 2.68-.695 4-.5 1.333 1 1.333 2 0 3 .95.617 1.782.45 2.5-.5.617.95.45 1.782-.5 2.5l2 1a25.556 25.556 0 0 1-6.5 5.5c-.089-1.613.745-2.78 2.5-3.5-3.443-.221-3.776-1.221-1-3-2.667-1-2.667-2 0-3-1.237-.232-2.237-.732-3-1.5z"/><path style="opacity:1" fill="#141e1d" d="M50.5 30.5c-2.249.58-3.915 1.913-5 4-1.347.528-2.68.695-4 .5L53 25.5c-.058 1.935-.891 3.602-2.5 5z"/><path style="opacity:1" fill="#5ca9a3" d="M50.5 30.5c-1.085 2.087-2.751 3.42-5 4 1.085-2.087 2.751-3.42 5-4z"/><path style="opacity:1" fill="#0d1413" d="M50.5 30.5a2.428 2.428 0 0 1 2 .5c-3.843 4.884-8.51 8.217-14 10 2.831-1.666 5.164-3.832 7-6.5 2.249-.58 3.915-1.913 5-4z"/><path style="opacity:1" fill="#192c2b" d="M106.5 37.5c.397-1.025 1.063-1.192 2-.5l9.5 9.5c.667.667.667 1.333 0 2a177.563 177.563 0 0 0-11.5-11z"/><path style="opacity:1" fill="#0e1515" d="M54.5 31.5a2.428 2.428 0 0 1 2 .5 245.698 245.698 0 0 1-22 20c-1.259.982-2.592 1.315-4 1a706.617 706.617 0 0 1 24-21.5z"/><path style="opacity:1" fill="#ed0000" d="M73.5 40.5c9.192.007 17.858 2.174 26 6.5-.619 1.757-1.786 2.924-3.5 3.5-25.698-9.999-43.698-2.332-54 23-3.308 13.604-.141 25.437 9.5 35.5a24.27 24.27 0 0 1-3.5 3.5c-13.056-13.256-16.056-28.589-9-46 7.407-14.258 18.907-22.924 34.5-26z"/><path style="opacity:1" fill="#182927" d="M126.5 50.5a2.429 2.429 0 0 1-.5 2l-8.5-8.5c.667-.667 1.333-.667 2 0a63.697 63.697 0 0 0 7 6.5z"/><path style="opacity:1" fill="#213b39" d="M35.5 43.5c1.025.397 1.192 1.063.5 2-.837 1.507-2.004 2.007-3.5 1.5a14.692 14.692 0 0 0 3-3.5z"/><path style="opacity:1" fill="#1c302e" d="M126.5 50.5c-.359-1.871-1.359-3.371-3-4.5 4.571 1.573 7.404 4.74 8.5 9.5a38.44 38.44 0 0 0-5.5-5z"/><path style="opacity:1" fill="#f6f6f6" d="M71.5 48.5a52.31 52.31 0 0 1 20 2.5c1.41.368 2.41 1.201 3 2.5a259.683 259.683 0 0 1-17 21 256.503 256.503 0 0 1-18-20c3.608-2.969 7.608-4.969 12-6z"/><path style="opacity:1" fill="#223c39" d="M132.5 50.5a46.117 46.117 0 0 1 6 5.5c-3.026-.519-5.026-2.352-6-5.5z"/><path style="opacity:1" fill="#ec0000" d="M107.5 53.5c7.604 6.878 11.771 15.545 12.5 26 .518 25.97-11.982 41.303-37.5 46a174.18 174.18 0 0 1-3 23.5c.88 1.356 1.213 2.856 1 4.5 8.234.509 16.234-.491 24-3a31.116 31.116 0 0 1 1 11 86.07 86.07 0 0 0-25-3.5 6.291 6.291 0 0 0-1 3 369.576 369.576 0 0 1 2 15.5h-9a161.44 161.44 0 0 0 2-19c-8.718-1.291-17.385-.958-26 1v-9c8.803 2.531 17.803 3.531 27 3a725.511 725.511 0 0 0-2-28c-6.631.508-12.298-1.492-17-6a7.248 7.248 0 0 1 2-2.5c26.29 10.606 44.79 2.773 55.5-23.5 2.722-13.487-.444-25.32-9.5-35.5a14.696 14.696 0 0 0 3-3.5z"/><path style="opacity:1" fill="#fafafa" d="M102.5 59.5c7.149 6.31 10.482 14.31 10 24 .239 4.879-.594 9.545-2.5 14a21.569 21.569 0 0 1-5.5 7 613.767 613.767 0 0 1-20-21.5 632.643 632.643 0 0 1 18-23.5z"/><path style="opacity:1" fill="#f9f9f9" d="M50.5 61.5c7.42 6.588 14.42 13.755 21 21.5a215.5 215.5 0 0 1-19 23.5c-12.052-14.491-12.719-29.491-2-45z"/><path style="opacity:1" fill="#f8f8f8" d="M77.5 91.5c7.086 6.255 13.753 13.088 20 20.5-12.165 8.123-24.499 8.456-37 1a510.337 510.337 0 0 0 17-21.5z"/><path style="opacity:1" fill="#fbfbfb" d="M158.5 118.5v73h-75c43.055-5.721 68.055-30.054 75-73zM-.5 120.5c8.057 41.534 33.057 65.201 75 71h-75v-71z"/></svg>
